symbols/web/kitesurfing/materialsymbolsrounded/kitesurfing_gradN25_24px.svg

<svg xmlns="http://www.w3.org/2000/svg" height="24" width="24"><path d="M8 4.95q-.8 0-1.375-.575T6.05 3q0-.825.575-1.388Q7.2 1.05 8 1.05q.825 0 1.388.562.562.563.562 1.388 0 .8-.562 1.375Q8.825 4.95 8 4.95Zm8.225-1.05Q16 3.675 16 3.375q0-.3.225-.525L18.075 1h2.1l-2.9 2.9q-.225.225-.525.225-.3 0-.525-.225ZM9 19.175q-.725 0-1.362-.3-.638-.3-1.163-.775l.8-.638q.425-.337.8-.587L6.5 13.85q-.225-.425-.325-.9-.1-.475-.1-.95V8q0-.8.563-1.375Q7.2 6.05 8 6.05h3q1.05 0 1.95-.375.9-.375 1.6-1.05l1.325 1.325q-.95.925-2.187 1.45-1.238.525-2.688.525H9.55v3.625h2q.4 0 .762.162.363.163.638.463l1.15 1.275q1.475-.65 2.787-1.025 1.313-.375 2.263-.375.625 0 1.213.237.587.238.587.988 0 1.075-1.537 2.65-1.538 1.575-3.888 3.175l-.25.05q-.125.025-.275.025-.875 0-1.65-.437-.775-.438-1.35-1.113-.55.675-1.325 1.113-.775.437-1.675.437Zm.8-3.5q.475-.275 1.275-.725.8-.45 1.225-.65l-.775-.875-2.6.1ZM3 22.925q-.375 0-.65-.275T2.075 22q0-.4.275-.675T3 21.05q.65 0 1.3-.187.65-.188 1.25-.563.2-.125.463-.125.262 0 .462.125.6.375 1.238.563.637.187 1.287.187.65 0 1.312-.187.663-.188 1.238-.563.2-.125.462-.125.263 0 .463.125.6.375 1.238.563.637.187 1.287.187.65 0 1.312-.187.663-.188 1.238-.563.2-.125.463-.125.262 0 .437.125.6.375 1.25.563.65.187 1.3.187.4 0 .675.275t.275.675q0 .375-.275.65t-.675.275q-.75 0-1.512-.2-.763-.2-1.488-.625-.725.425-1.475.625-.75.2-1.525.2-.75 0-1.512-.2-.763-.2-1.488-.625-.725.425-1.475.625-.75.2-1.525.2-.75 0-1.512-.2-.763-.2-1.488-.625-.725.425-1.475.625-.75.2-1.525.2Z"/></svg>

<svg xmlns="http://www.w3.org/2000/svg" height="24" width="24"><path d="M8 4.95Q7.2 4.95 6.625 4.375Q6.05 3.8 6.05 3Q6.05 2.175 6.625 1.612Q7.2 1.05 8 1.05Q8.825 1.05 9.388 1.612Q9.95 2.175 9.95 3Q9.95 3.8 9.388 4.375Q8.825 4.95 8 4.95ZM16.225 3.9Q16 3.675 16 3.375Q16 3.075 16.225 2.85L18.075 1H20.175L17.275 3.9Q17.05 4.125 16.75 4.125Q16.45 4.125 16.225 3.9ZM9 19.175Q8.275 19.175 7.638 18.875Q7 18.575 6.475 18.1Q6.85 17.8 7.275 17.462Q7.7 17.125 8.075 16.875L6.5 13.85Q6.275 13.425 6.175 12.95Q6.075 12.475 6.075 12V8Q6.075 7.2 6.638 6.625Q7.2 6.05 8 6.05H11Q12.05 6.05 12.95 5.675Q13.85 5.3 14.55 4.625L15.875 5.95Q14.925 6.875 13.688 7.4Q12.45 7.925 11 7.925H9.55V11.55H11.55Q11.95 11.55 12.312 11.712Q12.675 11.875 12.95 12.175L14.1 13.45Q15.575 12.8 16.887 12.425Q18.2 12.05 19.15 12.05Q19.775 12.05 20.363 12.287Q20.95 12.525 20.95 13.275Q20.95 14.35 19.413 15.925Q17.875 17.5 15.525 19.1Q15.4 19.125 15.275 19.15Q15.15 19.175 15 19.175Q14.125 19.175 13.35 18.738Q12.575 18.3 12 17.625Q11.45 18.3 10.675 18.738Q9.9 19.175 9 19.175ZM9.8 15.675Q10.275 15.4 11.075 14.95Q11.875 14.5 12.3 14.3L11.525 13.425Q11.525 13.425 11.525 13.425Q11.525 13.425 11.525 13.425L8.925 13.525ZM3 22.925Q2.625 22.925 2.35 22.65Q2.075 22.375 2.075 22Q2.075 21.6 2.35 21.325Q2.625 21.05 3 21.05Q3.65 21.05 4.3 20.863Q4.95 20.675 5.55 20.3Q5.75 20.175 6.013 20.175Q6.275 20.175 6.475 20.3Q7.075 20.675 7.713 20.863Q8.35 21.05 9 21.05Q9.65 21.05 10.312 20.863Q10.975 20.675 11.55 20.3Q11.75 20.175 12.012 20.175Q12.275 20.175 12.475 20.3Q13.075 20.675 13.713 20.863Q14.35 21.05 15 21.05Q15.65 21.05 16.312 20.863Q16.975 20.675 17.55 20.3Q17.75 20.175 18.013 20.175Q18.275 20.175 18.45 20.3Q19.05 20.675 19.7 20.863Q20.35 21.05 21 21.05Q21.4 21.05 21.675 21.325Q21.95 21.6 21.95 22Q21.95 22.375 21.675 22.65Q21.4 22.925 21 22.925Q20.25 22.925 19.488 22.725Q18.725 22.525 18 22.1Q17.275 22.525 16.525 22.725Q15.775 22.925 15 22.925Q14.25 22.925 13.488 22.725Q12.725 22.525 12 22.1Q11.275 22.525 10.525 22.725Q9.775 22.925 9 22.925Q8.25 22.925 7.488 22.725Q6.725 22.525 6 22.1Q5.275 22.525 4.525 22.725Q3.775 22.925 3 22.925Z"/></svg>
